X: 579
T:Dillon's Fancy
Z: id:dc-reel-370
M:C
L:1/8
Z:bil
N:Posted to the woodenflute mailing list September 2002
K:G Major
B|dGG2 dGBG|Bdgd eBdc|B2GB dGBG|A2BG AGEG|!
DGG2 DGBG|Bdgd eBdc|Bdef gfgd|Bdgd BGG:|!
f|gdBd gdBd|gbaf gdBd|gdBd gdBG|FGAB cdef|!
g3a gdBd|gbaf gfed|Bdef gfgd|Bdgd BGG:|!
<end>
<start>
